images_elementary_svg/cmd/32/repeat.svg

<svg height="32" width="32" xmlns="http://www.w3.org/2000/svg" xmlns:xlink="http://www.w3.org/1999/xlink"><linearGradient id="a" gradientTransform="matrix(.72265 0 0 .6732 -1.28 .27)" gradientUnits="userSpaceOnUse" x1="23.385" x2="23.169" y1="36.093" y2="7.159"><stop offset="0" stop-color="#cdf87e"/><stop offset=".262" stop-color="#a2e34f"/><stop offset=".692" stop-color="#68b723"/><stop offset="1" stop-color="#1d7e0d"/></linearGradient><linearGradient id="b"><stop offset="0" stop-color="#fff"/><stop offset=".512" stop-color="#fff" stop-opacity=".235"/><stop offset=".585" stop-color="#fff" stop-opacity=".157"/><stop offset="1" stop-color="#fff" stop-opacity=".392"/></linearGradient><linearGradient id="c" gradientTransform="matrix(0 -.78896 .8469 0 .008 36.692)" gradientUnits="userSpaceOnUse" x1="19.606" x2="38.278" xlink:href="#b" y1="15.351" y2="15.031"/><linearGradient id="d" gradientTransform="matrix(0 -.78896 -.8469 0 31.992 36.692)" gradientUnits="userSpaceOnUse" x1="38.941" x2="20.576" xlink:href="#b" y1="15.991" y2="15.991"/><linearGradient id="e" gradientTransform="matrix(-.72265 0 0 .6732 33.28 .27)" gradientUnits="userSpaceOnUse" x1="23.732" x2="23.732" y1="4.418" y2="38.58"><stop offset="0" stop-color="#fff3cb"/><stop offset=".262" stop-color="#fdde76"/><stop offset=".636" stop-color="#f9c440"/><stop offset="1" stop-color="#e48b20"/></linearGradient><path d="m22.218 26.317c7.502-6.54 4.615-17.207-6.718-17.492v-5.525l-11.78 9.208 11.78 9.206v-5.48c6.596-.256 10.512 5.76 5.797 10.084z" display="block" fill="url(#e)" transform="matrix(-1 0 0 1 26.876 -2.8)"/><path d="m23.98 23.11c3.338-4.55 1.26-13.94-9.48-13.207v-4.555l-9.13 7.16 9.13 7.15v-4.325c8.762-.84 10.447 6.245 9.48 7.777z" style="display:block;opacity:.8;fill:none;stroke-width:.964;stroke-miterlimit:7;stroke:url(#d)" transform="matrix(-1 0 0 1 26.876 -2.8)"/><path d="m4.658 23.517c-7.503-6.54-4.615-17.207 6.718-17.492v-5.525l11.78 9.207-11.78 9.206v-5.48c-6.596-.256-10.512 5.76-5.796 10.084z" fill="none" opacity=".5" stroke="#956500" stroke-linejoin="round"/><path d="m9.782 26.317c-7.502-6.54-4.615-17.207 6.718-17.492v-5.525l11.78 9.207-11.78 9.206v-5.48c-6.596-.256-10.512 5.76-5.797 10.084z" display="block" fill="url(#a)" transform="matrix(-1 0 0 -1 37.124 34.276)"/><g fill="none"><path d="m8.02 23.11c-3.338-4.55-1.26-13.94 9.48-13.207v-4.555l9.13 7.16-9.13 7.15v-4.325c-8.762-.84-10.447 6.245-9.48 7.777z" display="block" opacity=".8" stroke="url(#c)" stroke-miterlimit="7" stroke-width=".964" transform="matrix(-1 0 0 -1 37.124 34.276)"/><path d="m27.342 7.96c7.503 6.538 4.615 17.205-6.718 17.49v5.525l-11.78-9.205 11.78-9.207v5.48c6.596.256 10.512-5.76 5.797-10.084z" opacity=".5" stroke="#0f5a00" stroke-linecap="round"/></g></svg>

<svg xmlns="http://www.w3.org/2000/svg" height="32" width="32"><defs><linearGradient id="c" gradientTransform="matrix(.72265 0 0 .6732 -1.28 .27)" gradientUnits="userSpaceOnUse" x1="23.385" x2="23.169" y1="36.093" y2="7.159"><stop offset="0" stop-color="#cdf87e"/><stop offset=".262" stop-color="#a2e34f"/><stop offset=".692" stop-color="#68b723"/><stop offset="1" stop-color="#1d7e0d"/></linearGradient><linearGradient id="d" gradientTransform="matrix(0 -.78896 .8469 0 .008 36.692)" gradientUnits="userSpaceOnUse" x1="19.606" x2="38.278" y1="15.351" y2="15.031"><stop offset="0" stop-color="#fff"/><stop offset=".512" stop-color="#fff" stop-opacity=".235"/><stop offset=".585" stop-color="#fff" stop-opacity=".157"/><stop offset="1" stop-color="#fff" stop-opacity=".392"/></linearGradient></defs><linearGradient id="b" gradientTransform="matrix(0 -.78896 -.8469 0 31.992 36.692)" gradientUnits="userSpaceOnUse" x1="38.941" x2="20.576" y1="15.991" y2="15.991"><stop offset="0" stop-color="#fff"/><stop offset=".512" stop-color="#fff" stop-opacity=".235"/><stop offset=".585" stop-color="#fff" stop-opacity=".157"/><stop offset="1" stop-color="#fff" stop-opacity=".392"/></linearGradient><linearGradient id="a" gradientTransform="matrix(-.72265 0 0 .6732 33.28 .27)" gradientUnits="userSpaceOnUse" x1="23.732" x2="23.732" y1="4.418" y2="38.58"><stop offset="0" stop-color="#fff3cb"/><stop offset=".262" stop-color="#fdde76"/><stop offset=".636" stop-color="#f9c440"/><stop offset="1" stop-color="#e48b20"/></linearGradient><path display="block" d="M22.218 26.317C29.72 19.777 26.833 9.11 15.5 8.825V3.3L3.72 12.508l11.78 9.206v-5.48c6.596-.256 10.512 5.76 5.797 10.084z" fill="url(#a)" transform="matrix(-1 0 0 1 26.876 -2.8)"/><path d="M23.98 23.11c3.338-4.55 1.26-13.94-9.48-13.207V5.348l-9.13 7.16 9.13 7.15v-4.325c8.762-.84 10.447 6.245 9.48 7.777z" display="block" opacity=".8" fill="none" stroke="url(#b)" stroke-width=".964" stroke-miterlimit="7" transform="matrix(-1 0 0 1 26.876 -2.8)"/><path d="M4.658 23.517C-2.845 16.977.043 6.31 11.376 6.025V.5l11.78 9.207-11.78 9.206v-5.48C4.78 13.177.864 19.193 5.58 23.517z" opacity=".5" fill="none" stroke="#956500" stroke-linejoin="round"/><g><path display="block" d="M9.782 26.317C2.28 19.777 5.167 9.11 16.5 8.825V3.3l11.78 9.207-11.78 9.206v-5.48c-6.596-.256-10.512 5.76-5.797 10.084z" fill="url(#c)" transform="rotate(180 18.562 17.138)"/><path d="M8.02 23.11C4.682 18.56 6.76 9.17 17.5 9.903V5.348l9.13 7.16-9.13 7.15v-4.325c-8.762-.84-10.447 6.245-9.48 7.777z" display="block" opacity=".8" fill="none" stroke="url(#d)" stroke-width=".964" stroke-miterlimit="7" transform="rotate(180 18.562 17.138)"/><path d="M27.342 7.96c7.503 6.538 4.615 17.205-6.718 17.49v5.525L8.844 21.77l11.78-9.207v5.48c6.596.256 10.512-5.76 5.797-10.084z" opacity=".5" fill="none" stroke="#0f5a00" stroke-linecap="round"/></g></svg>
